cypex/img/main/info/info__item__2.svg

<svg width="368" height="222" viewBox="0 0 368 222" fill="none" xmlns="http://www.w3.org/2000/svg">
<g clip-path="url(#clip0_2_979)">
<path d="M47 50.9802L178.461 172L86.9921 162.04M326 50.9802L195.169 172L282.859 162.04M187.13 166.522V46" stroke="url(#paint0_linear_2_979)" stroke-linejoin="round"/>
<rect x="80.5" y="157.5" width="7" height="7" rx="3.5" stroke="#5D6061"/>
<rect x="282.5" y="157.5" width="7" height="7" rx="3.5" stroke="#5D6061"/>
<rect x="184" y="38.5" width="7" height="7" rx="3.5" stroke="#5D6061"/>
<g filter="url(#filter0_dd_2_979)">
<rect x="60" y="83" width="249" height="40" rx="20" fill="#1B1C1C" fill-opacity="0.96" shape-rendering="crispEdges"/>
<rect x="60.5" y="83.5" width="248" height="39" rx="19.5" stroke="#323638" shape-rendering="crispEdges"/>
</g>
<rect opacity="0.2" x="51.5" y="74.5" width="266" height="57" rx="28.5" stroke="url(#paint1_linear_2_979)"/>
<path d="M80.654 107.18C80.018 107.18 79.47 107.07 79.01 106.85C78.554 106.626 78.204 106.324 77.96 105.944C77.716 105.56 77.594 105.132 77.594 104.66C77.594 104.156 77.728 103.73 77.996 103.382C78.264 103.03 78.638 102.76 79.118 102.572C78.798 102.44 78.512 102.22 78.26 101.912C78.012 101.6 77.888 101.206 77.888 100.73C77.888 100.282 78.008 99.886 78.248 99.542C78.488 99.194 78.818 98.92 79.238 98.72C79.658 98.52 80.14 98.42 80.684 98.42C81.232 98.42 81.718 98.52 82.142 98.72C82.566 98.92 82.898 99.194 83.138 99.542C83.382 99.89 83.504 100.286 83.504 100.73C83.504 101.21 83.376 101.604 83.12 101.912C82.868 102.22 82.586 102.44 82.274 102.572C82.718 102.76 83.078 103.03 83.354 103.382C83.634 103.734 83.774 104.16 83.774 104.66C83.774 105.132 83.642 105.56 83.378 105.944C83.118 106.324 82.754 106.626 82.286 106.85C81.818 107.07 81.274 107.18 80.654 107.18ZM80.696 101.948C81.108 101.948 81.448 101.842 81.716 101.63C81.984 101.414 82.118 101.128 82.118 100.772C82.118 100.424 81.986 100.132 81.722 99.896C81.458 99.66 81.116 99.542 80.696 99.542C80.272 99.542 79.928 99.66 79.664 99.896C79.404 100.132 79.274 100.424 79.274 100.772C79.274 101.128 79.406 101.414 79.67 101.63C79.938 101.842 80.28 101.948 80.696 101.948ZM80.684 105.926C80.964 105.926 81.226 105.874 81.47 105.77C81.718 105.662 81.918 105.506 82.07 105.302C82.222 105.098 82.298 104.846 82.298 104.546C82.298 104.094 82.14 103.752 81.824 103.52C81.508 103.284 81.128 103.166 80.684 103.166C80.224 103.166 79.84 103.286 79.532 103.526C79.224 103.762 79.07 104.102 79.07 104.546C79.07 104.994 79.23 105.336 79.55 105.572C79.87 105.808 80.248 105.926 80.684 105.926ZM86.0214 107.18L85.4874 106.004C86.2434 105.912 86.8894 105.726 87.4254 105.446C87.9654 105.162 88.4014 104.814 88.7334 104.402C89.0694 103.99 89.3114 103.548 89.4594 103.076C89.2554 103.32 89.0034 103.514 88.7034 103.658C88.4074 103.802 88.0854 103.874 87.7374 103.874C87.2054 103.874 86.7294 103.76 86.3094 103.532C85.8894 103.3 85.5574 102.982 85.3134 102.578C85.0694 102.17 84.9474 101.704 84.9474 101.18C84.9474 100.66 85.0774 100.192 85.3374 99.776C85.6014 99.36 85.9654 99.03 86.4294 98.786C86.8974 98.542 87.4374 98.42 88.0494 98.42C88.6694 98.42 89.2214 98.554 89.7054 98.822C90.1894 99.09 90.5694 99.476 90.8454 99.98C91.1254 100.48 91.2654 101.084 91.2654 101.792C91.2654 102.508 91.1314 103.17 90.8634 103.778C90.5994 104.382 90.2294 104.918 89.7534 105.386C89.2774 105.854 88.7214 106.242 88.0854 106.55C87.4494 106.854 86.7614 107.064 86.0214 107.18ZM88.0494 102.644C88.5054 102.644 88.8894 102.504 89.2014 102.224C89.5134 101.944 89.6694 101.594 89.6694 101.174C89.6694 100.746 89.5154 100.396 89.2074 100.124C88.9034 99.848 88.5174 99.71 88.0494 99.71C87.5774 99.71 87.1894 99.848 86.8854 100.124C86.5814 100.396 86.4294 100.746 86.4294 101.174C86.4294 101.594 86.5834 101.944 86.8914 102.224C87.2034 102.504 87.5894 102.644 88.0494 102.644ZM93.4625 107.18C93.1825 107.18 92.9405 107.092 92.7365 106.916C92.5325 106.736 92.4305 106.498 92.4305 106.202C92.4305 105.902 92.5325 105.664 92.7365 105.488C92.9405 105.308 93.1825 105.218 93.4625 105.218C93.7465 105.218 93.9885 105.308 94.1885 105.488C94.3925 105.664 94.4945 105.902 94.4945 106.202C94.4945 106.498 94.3925 106.736 94.1885 106.916C93.9885 107.092 93.7465 107.18 93.4625 107.18ZM96.6071 107V100.262L94.5251 101.018L94.1171 99.806L97.9391 98.42H98.0471V107H96.6071ZM103.656 107V105.326H99.5397V104.18L102.432 98.6H103.998L101.16 104.048H103.656V102.26H104.976V104.048H106.224V105.326H104.976V107H103.656ZM108.216 107.18C107.936 107.18 107.694 107.092 107.49 106.916C107.286 106.736 107.184 106.498 107.184 106.202C107.184 105.902 107.286 105.664 107.49 105.488C107.694 105.308 107.936 105.218 108.216 105.218C108.5 105.218 108.742 105.308 108.942 105.488C109.146 105.664 109.248 105.902 109.248 106.202C109.248 106.498 109.146 106.736 108.942 106.916C108.742 107.092 108.5 107.18 108.216 107.18ZM111.361 107V100.262L109.279 101.018L108.871 99.806L112.693 98.42H112.801V107H111.361ZM114.774 107V105.926L116.58 104.282C117.148 103.762 117.6 103.322 117.936 102.962C118.276 102.598 118.52 102.272 118.668 101.984C118.82 101.692 118.896 101.4 118.896 101.108C118.896 100.68 118.75 100.346 118.458 100.106C118.166 99.866 117.758 99.746 117.234 99.746C116.866 99.746 116.512 99.812 116.172 99.944C115.832 100.076 115.538 100.272 115.29 100.532L114.738 99.398C115.094 99.082 115.502 98.84 115.962 98.672C116.422 98.504 116.9 98.42 117.396 98.42C117.992 98.42 118.51 98.526 118.95 98.738C119.394 98.946 119.738 99.238 119.982 99.614C120.226 99.99 120.348 100.432 120.348 100.94C120.348 101.284 120.278 101.626 120.138 101.966C120.002 102.306 119.76 102.688 119.412 103.112C119.064 103.536 118.57 104.048 117.93 104.648L116.796 105.698H120.564V107H114.774ZM122.865 107.18C122.585 107.18 122.343 107.092 122.139 106.916C121.935 106.736 121.833 106.498 121.833 106.202C121.833 105.902 121.935 105.664 122.139 105.488C122.343 105.308 122.585 105.218 122.865 105.218C123.149 105.218 123.391 105.308 123.591 105.488C123.795 105.664 123.897 105.902 123.897 106.202C123.897 106.498 123.795 106.736 123.591 106.916C123.391 107.092 123.149 107.18 122.865 107.18ZM126.009 107V100.262L123.927 101.018L123.519 99.806L127.341 98.42H127.449V107H126.009ZM129.422 107V105.926L131.228 104.282C131.796 103.762 132.248 103.322 132.584 102.962C132.924 102.598 133.168 102.272 133.316 101.984C133.468 101.692 133.544 101.4 133.544 101.108C133.544 100.68 133.398 100.346 133.106 100.106C132.814 99.866 132.406 99.746 131.882 99.746C131.514 99.746 131.16 99.812 130.82 99.944C130.48 100.076 130.186 100.272 129.938 100.532L129.386 99.398C129.742 99.082 130.15 98.84 130.61 98.672C131.07 98.504 131.548 98.42 132.044 98.42C132.64 98.42 133.158 98.526 133.598 98.738C134.042 98.946 134.386 99.238 134.63 99.614C134.874 99.99 134.996 100.432 134.996 100.94C134.996 101.284 134.926 101.626 134.786 101.966C134.65 102.306 134.408 102.688 134.06 103.112C133.712 103.536 133.218 104.048 132.578 104.648L131.444 105.698H135.212V107H129.422ZM139.025 107.18C138.493 107.18 137.977 107.098 137.477 106.934C136.981 106.77 136.601 106.562 136.337 106.31L136.835 105.05C137.079 105.294 137.391 105.488 137.771 105.632C138.155 105.772 138.541 105.842 138.929 105.842C139.453 105.842 139.873 105.714 140.189 105.458C140.505 105.198 140.663 104.854 140.663 104.426C140.663 103.986 140.501 103.644 140.177 103.4C139.857 103.152 139.433 103.028 138.905 103.028C138.589 103.028 138.259 103.07 137.915 103.154L137.477 102.152L139.961 99.89H136.415V98.6H141.773V99.788L139.427 102.062C139.899 102.066 140.341 102.16 140.753 102.344C141.165 102.524 141.499 102.796 141.755 103.16C142.015 103.524 142.145 103.978 142.145 104.522C142.145 105.046 142.011 105.508 141.743 105.908C141.479 106.308 141.113 106.62 140.645 106.844C140.177 107.068 139.637 107.18 139.025 107.18Z" fill="white"/>
<circle cx="289" cy="103" r="14" fill="white" fill-opacity="0.07"/>
<g filter="url(#filter1_d_2_979)">
<path d="M291.503 104.503H290.977L290.79 104.323C291.443 103.563 291.837 102.577 291.837 101.503C291.837 99.11 289.897 97.17 287.503 97.17C285.11 97.17 283.17 99.11 283.17 101.503C283.17 103.897 285.11 105.837 287.503 105.837C288.577 105.837 289.563 105.443 290.323 104.79L290.503 104.977V105.503L293.837 108.83L294.83 107.837L291.503 104.503ZM287.503 104.503C285.843 104.503 284.503 103.163 284.503 101.503C284.503 99.8433 285.843 98.5033 287.503 98.5033C289.163 98.5033 290.503 99.8433 290.503 101.503C290.503 103.163 289.163 104.503 287.503 104.503Z" fill="white"/>
</g>
<circle cx="42" cy="46" r="18" fill="#5DA8FF"/>
<path d="M47.9996 48.5714V51.9999H35.9996V48.5714H47.9996ZM48.8567 46.8571H35.1424C34.671 46.8571 34.2853 47.2428 34.2853 47.7142V52.8571C34.2853 53.3285 34.671 53.7142 35.1424 53.7142H48.8567C49.3281 53.7142 49.7139 53.3285 49.7139 52.8571V47.7142C49.7139 47.2428 49.3281 46.8571 48.8567 46.8571ZM37.7138 51.5714C37.011 51.5714 36.4281 50.9971 36.4281 50.2856C36.4281 49.5742 37.011 48.9999 37.7138 48.9999C38.4167 48.9999 38.9996 49.5742 38.9996 50.2856C38.9996 50.9971 38.4253 51.5714 37.7138 51.5714ZM47.9996 39.9999V43.4285H35.9996V39.9999H47.9996ZM48.8567 38.2856H35.1424C34.671 38.2856 34.2853 38.6714 34.2853 39.1428V44.2856C34.2853 44.7571 34.671 45.1428 35.1424 45.1428H48.8567C49.3281 45.1428 49.7139 44.7571 49.7139 44.2856V39.1428C49.7139 38.6714 49.3281 38.2856 48.8567 38.2856ZM37.7138 42.9999C37.011 42.9999 36.4281 42.4256 36.4281 41.7142C36.4281 41.0028 37.011 40.4285 37.7138 40.4285C38.4167 40.4285 38.9996 41.0114 38.9996 41.7142C38.9996 42.4171 38.4253 42.9999 37.7138 42.9999Z" fill="white"/>
<circle cx="326" cy="46" r="18" fill="#E5FF5D"/>
<g filter="url(#filter2_d_2_979)">
<path d="M326 37.4285L319.142 39.9999V45.2199C319.142 49.5485 322.065 53.5856 326 54.5713C329.934 53.5856 332.857 49.5485 332.857 45.2199V39.9999L326 37.4285ZM331.142 45.2199C331.142 48.6485 328.957 51.8199 326 52.7885C323.042 51.8199 320.857 48.657 320.857 45.2199V41.1913L326 39.2628L331.142 41.1913V45.2199Z" fill="#0D0D0D"/>
</g>
<circle cx="184" cy="172" r="17" fill="#A1FFB0"/>
<path d="M184.81 180.095H191.286V174.429H188.858V171.191H184.81V169.571H187.239V163.905H180.762V169.571H183.191V171.191H179.143V174.429H176.715V180.095H183.191V174.429H180.762V172.81H187.239V174.429H184.81V180.095ZM182.381 167.952V165.524H185.619V167.952H182.381ZM181.572 176.048V178.476H178.334V176.048H181.572ZM189.667 176.048V178.476H186.429V176.048H189.667Z" fill="#0D0D0D"/>
</g>
<defs>
<filter id="filter0_dd_2_979" x="-4" y="23" width="377" height="168" filterUnits="userSpaceOnUse" color-interpolation-filters="sRGB">
<feFlood flood-opacity="0" result="BackgroundImageFix"/>
<feColorMatrix in="SourceAlpha" type="matrix" values="0 0 0 0 0 0 0 0 0 0 0 0 0 0 0 0 0 0 127 0" result="hardAlpha"/>
<feOffset dy="4"/>
<feGaussianBlur stdDeviation="32"/>
<feComposite in2="hardAlpha" operator="out"/>
<feColorMatrix type="matrix" values="0 0 0 0 0.898039 0 0 0 0 1 0 0 0 0 0.364706 0 0 0 0.3 0"/>
<feBlend mode="normal" in2="BackgroundImageFix" result="effect1_dropShadow_2_979"/>
<feColorMatrix in="SourceAlpha" type="matrix" values="0 0 0 0 0 0 0 0 0 0 0 0 0 0 0 0 0 0 127 0" result="hardAlpha"/>
<feOffset/>
<feGaussianBlur stdDeviation="16"/>
<feComposite in2="hardAlpha" operator="out"/>
<feColorMatrix type="matrix" values="0 0 0 0 0.363818 0 0 0 0 1 0 0 0 0 1 0 0 0 0.2 0"/>
<feBlend mode="normal" in2="effect1_dropShadow_2_979" result="effect2_dropShadow_2_979"/>
<feBlend mode="normal" in="SourceGraphic" in2="effect2_dropShadow_2_979" result="shape"/>
</filter>
<filter id="filter1_d_2_979" x="265" y="83" width="48" height="48" filterUnits="userSpaceOnUse" color-interpolation-filters="sRGB">
<feFlood flood-opacity="0" result="BackgroundImageFix"/>
<feColorMatrix in="SourceAlpha" type="matrix" values="0 0 0 0 0 0 0 0 0 0 0 0 0 0 0 0 0 0 127 0" result="hardAlpha"/>
<feOffset dy="4"/>
<feGaussianBlur stdDeviation="8"/>
<feComposite in2="hardAlpha" operator="out"/>
<feColorMatrix type="matrix" values="0 0 0 0 0.607433 0 0 0 0 0.708431 0 0 0 0 0.0791335 0 0 0 1 0"/>
<feBlend mode="normal" in2="BackgroundImageFix" result="effect1_dropShadow_2_979"/>
<feBlend mode="normal" in="SourceGraphic" in2="effect1_dropShadow_2_979" result="shape"/>
</filter>
<filter id="filter2_d_2_979" x="299.714" y="23.7142" width="52.5714" height="52.5714" filterUnits="userSpaceOnUse" color-interpolation-filters="sRGB">
<feFlood flood-opacity="0" result="BackgroundImageFix"/>
<feColorMatrix in="SourceAlpha" type="matrix" values="0 0 0 0 0 0 0 0 0 0 0 0 0 0 0 0 0 0 127 0" result="hardAlpha"/>
<feOffset dy="4"/>
<feGaussianBlur stdDeviation="8"/>
<feComposite in2="hardAlpha" operator="out"/>
<feColorMatrix type="matrix" values="0 0 0 0 0.607433 0 0 0 0 0.708431 0 0 0 0 0.0791335 0 0 0 1 0"/>
<feBlend mode="normal" in2="BackgroundImageFix" result="effect1_dropShadow_2_979"/>
<feBlend mode="normal" in="SourceGraphic" in2="effect1_dropShadow_2_979" result="shape"/>
</filter>
<linearGradient id="paint0_linear_2_979" x1="47" y1="106.261" x2="326" y2="106.261" gradientUnits="userSpaceOnUse">
<stop stop-color="#5D6061" stop-opacity="0"/>
<stop offset="0.5" stop-color="#5D6061"/>
<stop offset="1" stop-color="#5D6061" stop-opacity="0"/>
</linearGradient>
<linearGradient id="paint1_linear_2_979" x1="318" y1="123.077" x2="60.451" y2="43.4364" gradientUnits="userSpaceOnUse">
<stop stop-color="#E5FF5D"/>
<stop offset="1" stop-color="#5DFFFF"/>
</linearGradient>
<clipPath id="clip0_2_979">
<rect width="368" height="222" fill="white"/>
</clipPath>
</defs>
</svg>

<svg width="368" height="222" fill="none" xmlns="http://www.w3.org/2000/svg"><g clip-path="url(#a)"><path d="M47 50.98 178.461 172l-91.469-9.96M326 50.98 195.169 172l87.69-9.96m-95.729 4.482V46" stroke="url(#b)" stroke-linejoin="round"/><rect x="80.5" y="157.5" width="7" height="7" rx="3.5" stroke="#5D6061"/><rect x="282.5" y="157.5" width="7" height="7" rx="3.5" stroke="#5D6061"/><rect x="184" y="38.5" width="7" height="7" rx="3.5" stroke="#5D6061"/><g filter="url(#c)" shape-rendering="crispEdges"><rect x="60" y="83" width="249" height="40" rx="20" fill="#1B1C1C" fill-opacity=".96"/><rect x="60.5" y="83.5" width="248" height="39" rx="19.5" stroke="#323638"/></g><rect opacity=".2" x="51.5" y="74.5" width="266" height="57" rx="28.5" stroke="url(#d)"/><path d="M80.654 107.18c-.636 0-1.184-.11-1.644-.33-.456-.224-.806-.526-1.05-.906a2.345 2.345 0 0 1-.366-1.284c0-.504.134-.93.402-1.278.268-.352.642-.622 1.122-.81a2.19 2.19 0 0 1-.858-.66c-.248-.312-.372-.706-.372-1.182 0-.448.12-.844.36-1.188.24-.348.57-.622.99-.822.42-.2.902-.3 1.446-.3.548 0 1.034.1 1.458.3.424.2.756.474.996.822.244.348.366.744.366 1.188 0 .48-.128.874-.384 1.182a2.214 2.214 0 0 1-.846.66c.444.188.804.458 1.08.81.28.352.42.778.42 1.278 0 .472-.132.9-.396 1.284-.26.38-.624.682-1.092.906-.468.22-1.012.33-1.632.33Zm.042-5.232c.412 0 .752-.106 1.02-.318.268-.216.402-.502.402-.858 0-.348-.132-.64-.396-.876s-.606-.354-1.026-.354c-.424 0-.768.118-1.032.354-.26.236-.39.528-.39.876 0 .356.132.642.396.858.268.212.61.318 1.026.318Zm-.012 3.978c.28 0 .542-.052.786-.156.248-.108.448-.264.6-.468.152-.204.228-.456.228-.756 0-.452-.158-.794-.474-1.026-.316-.236-.696-.354-1.14-.354-.46 0-.844.12-1.152.36-.308.236-.462.576-.462 1.02 0 .448.16.79.48 1.026.32.236.698.354 1.134.354Zm5.337 1.254-.534-1.176c.756-.092 1.402-.278 1.938-.558.54-.284.976-.632 1.308-1.044.336-.412.578-.854.726-1.326a2.227 2.227 0 0 1-.756.582 2.178 2.178 0 0 1-.966.216 2.944 2.944 0 0 1-1.428-.342 2.624 2.624 0 0 1-.996-.954 2.67 2.67 0 0 1-.366-1.398c0-.52.13-.988.39-1.404a2.815 2.815 0 0 1 1.092-.99c.468-.244 1.008-.366 1.62-.366.62 0 1.172.134 1.656.402s.864.654 1.14 1.158c.28.5.42 1.104.42 1.812 0 .716-.134 1.378-.402 1.986a5.103 5.103 0 0 1-1.11 1.608 6.23 6.23 0 0 1-1.668 1.164 7.424 7.424 0 0 1-2.064.63Zm2.028-4.536c.456 0 .84-.14 1.152-.42.312-.28.468-.63.468-1.05 0-.428-.154-.778-.462-1.05-.304-.276-.69-.414-1.158-.414-.472 0-.86.138-1.164.414a1.345 1.345 0 0 0-.456 1.05c0 .42.154.77.462 1.05.312.28.698.42 1.158.42Zm5.413 4.536a1.07 1.07 0 0 1-.725-.264.906.906 0 0 1-.306-.714c0-.3.102-.538.306-.714.204-.18.446-.27.726-.27.284 0 .526.09.726.27.204.176.306.414.306.714a.906.906 0 0 1-.306.714 1.06 1.06 0 0 1-.726.264Zm3.145-.18v-6.738l-2.082.756-.408-1.212 3.822-1.386h.108V107h-1.44Zm7.049 0v-1.674H99.54v-1.146l2.892-5.58h1.566l-2.838 5.448h2.496v-1.788h1.32v1.788h1.248v1.278h-1.248V107h-1.32Zm4.56.18c-.28 0-.522-.088-.726-.264a.906.906 0 0 1-.306-.714c0-.3.102-.538.306-.714.204-.18.446-.27.726-.27.284 0 .526.09.726.27.204.176.306.414.306.714a.906.906 0 0 1-.306.714 1.06 1.06 0 0 1-.726.264Zm3.145-.18v-6.738l-2.082.756-.408-1.212 3.822-1.386h.108V107h-1.44Zm3.413 0v-1.074l1.806-1.644c.568-.52 1.02-.96 1.356-1.32.34-.364.584-.69.732-.978.152-.292.228-.584.228-.876 0-.428-.146-.762-.438-1.002-.292-.24-.7-.36-1.224-.36a2.91 2.91 0 0 0-1.062.198c-.34.132-.634.328-.882.588l-.552-1.134a3.777 3.777 0 0 1 1.224-.726c.46-.168.938-.252 1.434-.252.596 0 1.114.106 1.554.318.444.208.788.5 1.032.876s.366.818.366 1.326c0 .344-.07.686-.21 1.026-.136.34-.378.722-.726 1.146-.348.424-.842.936-1.482 1.536l-1.134 1.05h3.768V107h-5.79Zm8.091.18c-.28 0-.522-.088-.726-.264a.906.906 0 0 1-.306-.714c0-.3.102-.538.306-.714.204-.18.446-.27.726-.27.284 0 .526.09.726.27.204.176.306.414.306.714a.906.906 0 0 1-.306.714 1.06 1.06 0 0 1-.726.264Zm3.144-.18v-6.738l-2.082.756-.408-1.212 3.822-1.386h.108V107h-1.44Zm3.413 0v-1.074l1.806-1.644c.568-.52 1.02-.96 1.356-1.32.34-.364.584-.69.732-.978.152-.292.228-.584.228-.876 0-.428-.146-.762-.438-1.002-.292-.24-.7-.36-1.224-.36a2.91 2.91 0 0 0-1.062.198c-.34.132-.634.328-.882.588l-.552-1.134a3.777 3.777 0 0 1 1.224-.726c.46-.168.938-.252 1.434-.252.596 0 1.114.106 1.554.318.444.208.788.5 1.032.876s.366.818.366 1.326c0 .344-.07.686-.21 1.026-.136.34-.378.722-.726 1.146-.348.424-.842.936-1.482 1.536l-1.134 1.05h3.768V107h-5.79Zm9.603.18a4.935 4.935 0 0 1-1.548-.246c-.496-.164-.876-.372-1.14-.624l.498-1.26c.244.244.556.438.936.582.384.14.77.21 1.158.21.524 0 .944-.128 1.26-.384.316-.26.474-.604.474-1.032 0-.44-.162-.782-.486-1.026-.32-.248-.744-.372-1.272-.372-.316 0-.646.042-.99.126l-.438-1.002 2.484-2.262h-3.546V98.6h5.358v1.188l-2.346 2.274c.472.004.914.098 1.326.282.412.18.746.452 1.002.816.26.364.39.818.39 1.362 0 .524-.134.986-.402 1.386-.264.4-.63.712-1.098.936-.468.224-1.008.336-1.62.336Z" fill="#fff"/><circle cx="289" cy="103" r="14" fill="#fff" fill-opacity=".07"/><g filter="url(#e)"><path d="M291.503 104.503h-.526l-.187-.18a4.315 4.315 0 0 0 1.047-2.82 4.333 4.333 0 1 0-4.334 4.334c1.074 0 2.06-.394 2.82-1.047l.18.187v.526l3.334 3.327.993-.993-3.327-3.334Zm-4 0c-1.66 0-3-1.34-3-3s1.34-3 3-3 3 1.34 3 3-1.34 3-3 3Z" fill="#fff"/></g><circle cx="42" cy="46" r="18" fill="#5DA8FF"/><path d="M48 48.571V52H36v-3.43h12Zm.857-1.714H35.142a.86.86 0 0 0-.857.857v5.143a.86.86 0 0 0 .857.857h13.715a.86.86 0 0 0 .857-.857v-5.143a.86.86 0 0 0-.857-.857Zm-11.143 4.714a1.29 1.29 0 0 1-1.286-1.285A1.29 1.29 0 0 1 37.714 49 1.29 1.29 0 0 1 39 50.286c0 .711-.575 1.285-1.286 1.285ZM48 40v3.428H36V40h12Zm.857-1.714H35.142a.86.86 0 0 0-.857.857v5.143a.86.86 0 0 0 .857.857h13.715a.86.86 0 0 0 .857-.857v-5.143a.86.86 0 0 0-.857-.857ZM37.714 43a1.29 1.29 0 0 1-1.286-1.286 1.29 1.29 0 0 1 1.286-1.285c.703 0 1.286.582 1.286 1.285A1.29 1.29 0 0 1 37.714 43Z" fill="#fff"/><circle cx="326" cy="46" r="18" fill="#E5FF5D"/><g filter="url(#f)"><path d="M326 37.428 319.142 40v5.22c0 4.328 2.923 8.366 6.858 9.351 3.934-.985 6.857-5.023 6.857-9.351V40L326 37.428Zm5.142 7.792c0 3.428-2.185 6.6-5.142 7.569-2.958-.97-5.143-4.132-5.143-7.57v-4.028L326 39.263l5.142 1.928v4.029Z" fill="#0D0D0D"/></g><circle cx="184" cy="172" r="17" fill="#A1FFB0"/><path d="M184.81 180.095h6.476v-5.666h-2.428v-3.238h-4.048v-1.62h2.429v-5.666h-6.477v5.666h2.429v1.62h-4.048v3.238h-2.428v5.666h6.476v-5.666h-2.429v-1.619h6.477v1.619h-2.429v5.666Zm-2.429-12.143v-2.428h3.238v2.428h-3.238Zm-.809 8.096v2.428h-3.238v-2.428h3.238Zm8.095 0v2.428h-3.238v-2.428h3.238Z" fill="#0D0D0D"/></g><defs><filter id="c" x="-4" y="23" width="377" height="168" filterUnits="userSpaceOnUse" color-interpolation-filters="sRGB"><feFlood flood-opacity="0" result="BackgroundImageFix"/><feColorMatrix in="SourceAlpha" values="0 0 0 0 0 0 0 0 0 0 0 0 0 0 0 0 0 0 127 0" result="hardAlpha"/><feOffset dy="4"/><feGaussianBlur stdDeviation="32"/><feComposite in2="hardAlpha" operator="out"/><feColorMatrix values="0 0 0 0 0.898039 0 0 0 0 1 0 0 0 0 0.364706 0 0 0 0.3 0"/><feBlend in2="BackgroundImageFix" result="effect1_dropShadow_2_979"/><feColorMatrix in="SourceAlpha" values="0 0 0 0 0 0 0 0 0 0 0 0 0 0 0 0 0 0 127 0" result="hardAlpha"/><feOffset/><feGaussianBlur stdDeviation="16"/><feComposite in2="hardAlpha" operator="out"/><feColorMatrix values="0 0 0 0 0.363818 0 0 0 0 1 0 0 0 0 1 0 0 0 0.2 0"/><feBlend in2="effect1_dropShadow_2_979" result="effect2_dropShadow_2_979"/><feBlend in="SourceGraphic" in2="effect2_dropShadow_2_979" result="shape"/></filter><filter id="e" x="265" y="83" width="48" height="48" filterUnits="userSpaceOnUse" color-interpolation-filters="sRGB"><feFlood flood-opacity="0" result="BackgroundImageFix"/><feColorMatrix in="SourceAlpha" values="0 0 0 0 0 0 0 0 0 0 0 0 0 0 0 0 0 0 127 0" result="hardAlpha"/><feOffset dy="4"/><feGaussianBlur stdDeviation="8"/><feComposite in2="hardAlpha" operator="out"/><feColorMatrix values="0 0 0 0 0.607433 0 0 0 0 0.708431 0 0 0 0 0.0791335 0 0 0 1 0"/><feBlend in2="BackgroundImageFix" result="effect1_dropShadow_2_979"/><feBlend in="SourceGraphic" in2="effect1_dropShadow_2_979" result="shape"/></filter><filter id="f" x="299.714" y="23.714" width="52.571" height="52.571" filterUnits="userSpaceOnUse" color-interpolation-filters="sRGB"><feFlood flood-opacity="0" result="BackgroundImageFix"/><feColorMatrix in="SourceAlpha" values="0 0 0 0 0 0 0 0 0 0 0 0 0 0 0 0 0 0 127 0" result="hardAlpha"/><feOffset dy="4"/><feGaussianBlur stdDeviation="8"/><feComposite in2="hardAlpha" operator="out"/><feColorMatrix values="0 0 0 0 0.607433 0 0 0 0 0.708431 0 0 0 0 0.0791335 0 0 0 1 0"/><feBlend in2="BackgroundImageFix" result="effect1_dropShadow_2_979"/><feBlend in="SourceGraphic" in2="effect1_dropShadow_2_979" result="shape"/></filter><linearGradient id="b" x1="47" y1="106.261" x2="326" y2="106.261" gradientUnits="userSpaceOnUse"><stop stop-color="#5D6061" stop-opacity="0"/><stop offset=".5" stop-color="#5D6061"/><stop offset="1" stop-color="#5D6061" stop-opacity="0"/></linearGradient><linearGradient id="d" x1="318" y1="123.077" x2="60.451" y2="43.436" gradientUnits="userSpaceOnUse"><stop stop-color="#E5FF5D"/><stop offset="1" stop-color="#5DFFFF"/></linearGradient><clipPath id="a"><path fill="#fff" d="M0 0h368v222H0z"/></clipPath></defs></svg>
